; generated by PrusaSlicer 2.5.0+linux-x64-GTK3 on 2022-10-26 at 14:07:32 UTC

; 

; external perimeters extrusion width = 0.45mm
; perimeters extrusion width = 0.45mm
; infill extrusion width = 0.45mm
; solid infill extrusion width = 0.45mm
; top infill extrusion width = 0.40mm
; support material extrusion width = 0.38mm
; first layer extrusion width = 0.42mm

M107
;TYPE:Custom
G90 ; use absolute coordinates
M83 ; extruder relative mode
M140 S60 ; set final bed temp
M104 S150 ; set temporary nozzle temp to prevent oozing during homing
G4 S10 ; allow partial nozzle warmup
G28 ; home all axis
G1 Z50 F240
G1 X2 Y10 F3000
M104 S215 ; set final nozzle temp
M190 S60 ; wait for bed temp to stabilize
M109 S215 ; wait for nozzle temp to stabilize
G1 Z0.28 F240
G92 E0
G1 Y140 E10 F1500 ; prime the nozzle
G1 X2.3 F5000
G92 E0
G1 Y10 E10 F1200 ; prime the nozzle
G92 E0
G21 ; set units to millimeters
G90 ; use absolute coordinates
M83 ; use relative distances for extrusion
; Filament gcode
M107
;LAYER_CHANGE
;Z:0.2
;HEIGHT:0.2
;BEFORE_LAYER_CHANGE
G92 E0
;0.2


G1 E-5 F3600
G1 Z.2 F9000
;AFTER_LAYER_CHANGE
;0.2
G1 X88.289 Y87.947
G1 E5 F2400
M204 S500
;TYPE:Skirt/Brim
;WIDTH:0.42
G1 F1200
G1 X103.32 Y74.932 E.62338
G1 X105.53 Y74.108 E.07397
G1 X125.47 Y74.108 E.62519
G1 X127.68 Y74.932 E.07397
G1 X142.711 Y87.947 E.62338
G1 X143.649 Y89.281 E.05115
G1 X143.877 Y90.5 E.03887
G1 X143.877 Y140.5 E1.56771
G1 X143.483 Y142.083 E.05115
G1 X142.711 Y143.053 E.03887
G1 X127.68 Y156.068 E.62338
G1 X125.47 Y156.892 E.07397
G1 X105.53 Y156.892 E.62519
G1 X103.32 Y156.068 E.07397
G1 X88.289 Y143.053 E.62338
G1 X87.351 Y141.719 E.05115
G1 X87.123 Y140.5 E.03887
G1 X87.123 Y90.5 E1.56771
G1 X87.517 Y88.917 E.05115
G1 X88.252 Y87.994 E.03699
G1 E-3.5 F3600
;WIPE_START
G1 F7200
G1 X90.519 Y86.029 E-1.425
;WIPE_END
G1 E-.075 F3600
G1 X125.47 Y90.02 F9000
G1 E5 F2400
;TYPE:Support material
G1 F1200
G1 X105.53 Y90.02 E.62519
G1 X105.53 Y77.485 E.39301
G1 X125.47 Y77.485 E.62519
G1 X125.47 Y89.963 E.39124
G1 X124.717 Y89.85 F9000
G1 F1200
G1 X124.717 Y77.825 E.37705
G1 X124.299 Y77.825 E.01314
G1 X124.299 Y89.681 E.37173
G1 X123.88 Y89.681 E.01314
G1 X123.88 Y77.825 E.37173
G1 X123.461 Y77.825 E.01314
G1 X123.461 Y89.681 E.37173
G1 X123.042 Y89.681 E.01314
G1 X123.042 Y77.825 E.37173
G1 X122.623 Y77.825 E.01314
G1 X122.623 Y89.681 E.37173
G1 X122.204 Y89.681 E.01314
G1 X122.204 Y77.825 E.37173
G1 X121.785 Y77.825 E.01314
G1 X121.785 Y89.681 E.37173
G1 X121.366 Y89.681 E.01314
G1 X121.366 Y77.825 E.37173
G1 X120.947 Y77.825 E.01314
G1 X120.947 Y89.681 E.37173
G1 X120.528 Y89.681 E.01314
G1 X120.528 Y77.825 E.37173
G1 X120.109 Y77.825 E.01314
G1 X120.109 Y89.681 E.37173
G1 X119.69 Y89.681 E.01314
G1 X119.69 Y77.825 E.37173
G1 X119.271 Y77.825 E.01314
G1 X119.271 Y89.681 E.37173
G1 X118.852 Y89.681 E.01314
G1 X118.852 Y77.825 E.37173
G1 X118.433 Y77.825 E.01314
G1 X118.433 Y89.681 E.37173
G1 X118.014 Y89.681 E.01314
G1 X118.014 Y77.825 E.37173
G1 X117.595 Y77.825 E.01314
G1 X117.595 Y89.681 E.37173
G1 X117.176 Y89.681 E.01314
G1 X117.176 Y77.825 E.37173
G1 X116.757 Y77.825 E.01314
G1 X116.757 Y89.681 E.37173
G1 X116.338 Y89.681 E.01314
G1 X116.338 Y77.825 E.37173
G1 X115.919 Y77.825 E.01314
G1 X115.919 Y89.681 E.37173
G1 X115.5 Y89.681 E.01314
G1 X115.5 Y77.825 E.37173
G1 X115.081 Y77.825 E.01314
G1 X115.081 Y89.681 E.37173
G1 X114.662 Y89.681 E.01314
G1 X114.662 Y77.825 E.37173
G1 X114.243 Y77.825 E.01314
G1 X114.243 Y89.681 E.37173
G1 X113.824 Y89.681 E.01314
G1 X113.824 Y77.825 E.37173
G1 X113.405 Y77.825 E.01314
G1 X113.405 Y89.681 E.37173
G1 X112.986 Y89.681 E.01314
G1 X112.986 Y77.825 E.37173
G1 X112.567 Y77.825 E.01314
G1 X112.567 Y89.681 E.37173
G1 X112.148 Y89.681 E.01314
G1 X112.148 Y77.825 E.37173
G1 X111.729 Y77.825 E.01314
G1 X111.729 Y89.681 E.37173
G1 X111.31 Y89.681 E.01314
G1 X111.31 Y77.825 E.37173
G1 X110.891 Y77.825 E.01314
G1 X110.891 Y89.681 E.37173
G1 X110.472 Y89.681 E.01314
G1 X110.472 Y77.825 E.37173
G1 X110.053 Y77.825 E.01314
G1 X110.053 Y89.681 E.37173
G1 X109.634 Y89.681 E.01314
G1 X109.634 Y77.825 E.37173
G1 X109.215 Y77.825 E.01314
G1 X109.215 Y89.681 E.37173
G1 X108.796 Y89.681 E.01314
G1 X108.796 Y77.825 E.37173
G1 X108.377 Y77.825 E.01314
G1 X108.377 Y89.681 E.37173
G1 X107.958 Y89.681 E.01314
G1 X107.958 Y77.825 E.37173
G1 X107.539 Y77.825 E.01314
G1 X107.539 Y89.681 E.37173
G1 X107.12 Y89.681 E.01314
G1 X107.12 Y77.825 E.37173
G1 X106.701 Y77.825 E.01314
G1 X106.701 Y89.681 E.37173
G1 X106.283 Y89.681 E.01314
G1 X106.283 Y77.655 E.37705
G1 E-3.5 F3600
;WIPE_START
G1 F7200
G1 X106.283 Y80.655 E-1.425
;WIPE_END
G1 E-.075 F3600
G1 X125.47 Y153.515 F9000
G1 E5 F2400
G1 F1200
G1 X105.53 Y153.515 E.62519
G1 X105.53 Y140.98 E.39302
G1 X125.47 Y140.98 E.62519
G1 X125.47 Y153.458 E.39124
G1 X124.717 Y153.345 F9000
G1 F1200
G1 X124.717 Y141.319 E.37705
G1 X124.299 Y141.319 E.01314
G1 X124.299 Y153.175 E.37173
G1 X123.88 Y153.175 E.01314
G1 X123.88 Y141.319 E.37173
G1 X123.461 Y141.319 E.01314
G1 X123.461 Y153.175 E.37173
G1 X123.042 Y153.175 E.01314
G1 X123.042 Y141.319 E.37173
G1 X122.623 Y141.319 E.01314
G1 X122.623 Y153.175 E.37173
G1 X122.204 Y153.175 E.01314
G1 X122.204 Y141.319 E.37173
G1 X121.785 Y141.319 E.01314
G1 X121.785 Y153.175 E.37173
G1 X121.366 Y153.175 E.01314
G1 X121.366 Y141.319 E.37173
G1 X120.947 Y141.319 E.01314
G1 X120.947 Y153.175 E.37173
G1 X120.528 Y153.175 E.01314
G1 X120.528 Y141.319 E.37173
G1 X120.109 Y141.319 E.01314
G1 X120.109 Y153.175 E.37173
G1 X119.69 Y153.175 E.01314
G1 X119.69 Y141.319 E.37173
G1 X119.271 Y141.319 E.01314
G1 X119.271 Y153.175 E.37173
G1 X118.852 Y153.175 E.01314
G1 X118.852 Y141.319 E.37173
G1 X118.433 Y141.319 E.01314
G1 X118.433 Y153.175 E.37173
G1 X118.014 Y153.175 E.01314
G1 X118.014 Y141.319 E.37173
G1 X117.595 Y141.319 E.01314
G1 X117.595 Y153.175 E.37173
G1 X117.176 Y153.175 E.01314
G1 X117.176 Y141.319 E.37173
G1 X116.757 Y141.319 E.01314
G1 X116.757 Y153.175 E.37173
G1 X116.338 Y153.175 E.01314
G1 X116.338 Y141.319 E.37173
G1 X115.919 Y141.319 E.01314
G1 X115.919 Y153.175 E.37173
G1 X115.5 Y153.175 E.01314
G1 X115.5 Y141.319 E.37173
G1 X115.081 Y141.319 E.01314
G1 X115.081 Y153.175 E.37173
G1 X114.662 Y153.175 E.01314
G1 X114.662 Y141.319 E.37173
G1 X114.243 Y141.319 E.01314
G1 X114.243 Y153.175 E.37173
G1 X113.824 Y153.175 E.01314
G1 X113.824 Y141.319 E.37173
G1 X113.405 Y141.319 E.01314
G1 X113.405 Y153.175 E.37173
G1 X112.986 Y153.175 E.01314
G1 X112.986 Y141.319 E.37173
G1 X112.567 Y141.319 E.01314
G1 X112.567 Y153.175 E.37173
G1 X112.148 Y153.175 E.01314
G1 X112.148 Y141.319 E.37173
G1 X111.729 Y141.319 E.01314
G1 X111.729 Y153.175 E.37173
G1 X111.31 Y153.175 E.01314
G1 X111.31 Y141.319 E.37173
G1 X110.891 Y141.319 E.01314
G1 X110.891 Y153.175 E.37173
G1 X110.472 Y153.175 E.01314
G1 X110.472 Y141.319 E.37173
G1 X110.053 Y141.319 E.01314
G1 X110.053 Y153.175 E.37173
G1 X109.634 Y153.175 E.01314
G1 X109.634 Y141.319 E.37173
G1 X109.215 Y141.319 E.01314
G1 X109.215 Y153.175 E.37173
G1 X108.796 Y153.175 E.01314
G1 X108.796 Y141.319 E.37173
G1 X108.377 Y141.319 E.01314
G1 X108.377 Y153.175 E.37173
G1 X107.958 Y153.175 E.01314
G1 X107.958 Y141.319 E.37173
G1 X107.539 Y141.319 E.01314
G1 X107.539 Y153.175 E.37173
G1 X107.12 Y153.175 E.01314
G1 X107.12 Y141.319 E.37173
G1 X106.701 Y141.319 E.01314
G1 X106.701 Y153.175 E.37173
G1 X106.283 Y153.175 E.01314
G1 X106.283 Y141.15 E.37705
G1 E-3.5 F3600
;WIPE_START
G1 F7200
G1 X106.283 Y144.15 E-1.425
;WIPE_END
G1 E-.075 F3600
G1 X91.187 Y139.813 F9000
G1 E5 F2400
;TYPE:Perimeter
;WIDTH:0.419999
G1 F1200
G1 X91.187 Y91.187 E1.52463
G1 X139.813 Y91.187 E1.52463
G1 X139.813 Y139.813 E1.52463
G1 X91.247 Y139.813 E1.52275
G1 X90.81 Y140.19 F9000
;TYPE:External perimeter
G1 F1200
G1 X90.81 Y90.81 E1.54827
G1 X140.19 Y90.81 E1.54827
G1 X140.19 Y140.19 E1.54827
G1 X90.87 Y140.19 E1.54639
G1 X90.914 Y139.804 F9000
G1 E-3.5 F3600
;WIPE_START
G1 F7200
G1 X90.866 Y137.19 E-1.425
;WIPE_END
G1 E-.075 F3600
G1 X105.346 Y123.912 F9000
G1 E5 F2400
;TYPE:Perimeter
G1 F1200
G1 X104.601 Y122.923 E.03882
G1 X104.159 Y122.228 E.02584
G1 X103.758 Y121.502 E.02598
G1 X103.249 Y120.379 E.03867
G1 X102.845 Y119.205 E.03895
G1 X102.552 Y117.997 E.03895
G1 X102.375 Y116.767 E.03895
G1 X102.314 Y115.527 E.03895
G1 X102.37 Y114.286 E.03895
G1 X102.542 Y113.055 E.03895
G1 X102.83 Y111.847 E.03895
G1 X103.23 Y110.671 E.03895
G1 X103.745 Y109.525 E.03938
G1 X104.141 Y108.803 E.02584
G1 X104.584 Y108.102 E.02597
G1 X105.323 Y107.115 E.03867
G1 X106.157 Y106.195 E.03895
G1 X107.074 Y105.357 E.03895
G1 X108.066 Y104.609 E.03895
G1 X109.171 Y103.932 E.04062
G1 X110.287 Y103.387 E.03895
G1 X111.45 Y102.951 E.03895
G1 X112.597 Y102.637 E.03728
G1 X113.821 Y102.421 E.03895
G1 X114.699 Y102.338 E.02765
G1 X115.888 Y102.319 E.03729
G1 X116.723 Y102.37 E.02625
G1 X117.945 Y102.542 E.03867
G1 X119.153 Y102.83 E.03895
G1 X120.329 Y103.23 E.03895
G1 X121.463 Y103.739 E.03895
G1 X122.197 Y104.141 E.02626
G1 X122.898 Y104.584 E.02598
G1 X123.885 Y105.323 E.03867
G1 X124.805 Y106.157 E.03895
G1 X125.643 Y107.074 E.03895
G1 X126.421 Y108.11 E.04062
G1 X127.068 Y109.171 E.03896
G1 X127.596 Y110.251 E.03769
G1 X127.901 Y111.017 E.02584
G1 X128.158 Y111.804 E.02597
G1 X128.448 Y113.003 E.03867
G1 X128.625 Y114.233 E.03895
G1 X128.686 Y115.473 E.03895
G1 X128.63 Y116.714 E.03895
G1 X128.458 Y117.945 E.03895
G1 X128.17 Y119.153 E.03895
G1 X127.77 Y120.329 E.03895
G1 X127.255 Y121.475 E.03938
G1 X126.859 Y122.197 E.02584
G1 X126.416 Y122.898 E.02597
G1 X125.677 Y123.885 E.03867
G1 X124.843 Y124.805 E.03895
G1 X123.926 Y125.643 E.03895
G1 X122.934 Y126.391 E.03895
G1 X122.228 Y126.841 E.02626
G1 X121.502 Y127.242 E.02598
G1 X120.379 Y127.751 E.03867
G1 X119.204 Y128.155 E.03895
G1 X117.997 Y128.448 E.03895
G1 X116.767 Y128.625 E.03895
G1 X115.527 Y128.686 E.03895
G1 X114.286 Y128.63 E.03895
G1 X113.055 Y128.458 E.03895
G1 X111.847 Y128.17 E.03895
G1 X111.008 Y127.898 E.02765
G1 X109.909 Y127.443 E.03729
G1 X109.163 Y127.064 E.02625
G1 X108.11 Y126.421 E.03867
G1 X107.115 Y125.677 E.03895
G1 X106.195 Y124.843 E.03895
G1 X105.385 Y123.957 E.03762
G1 X105.636 Y123.672 F9000
;TYPE:External perimeter
G1 F1200
G1 X104.903 Y122.697 E.03825
G1 X104.477 Y122.026 E.02492
G1 X104.089 Y121.321 E.02524
G1 X103.593 Y120.224 E.03774
G1 X103.201 Y119.082 E.03784
G1 X102.919 Y117.909 E.03784
G1 X102.748 Y116.714 E.03784
G1 X102.69 Y115.509 E.03784
G1 X102.746 Y114.303 E.03784
G1 X102.915 Y113.108 E.03784
G1 X103.196 Y111.935 E.03784
G1 X103.586 Y110.793 E.03783
G1 X104.088 Y109.681 E.03825
G1 X104.471 Y108.984 E.02492
G1 X104.902 Y108.305 E.02524
G1 X105.624 Y107.342 E.03774
G1 X106.436 Y106.448 E.03784
G1 X107.328 Y105.636 E.03784
G1 X108.292 Y104.91 E.03784
G1 X109.337 Y104.27 E.0384
G1 X110.421 Y103.74 E.03784
G1 X111.55 Y103.314 E.03784
G1 X112.697 Y103.001 E.03728
G1 X113.886 Y102.792 E.03784
G1 X114.705 Y102.715 E.02579
G1 X115.897 Y102.696 E.03738
G1 X116.7 Y102.746 E.02523
G1 X117.892 Y102.915 E.03774
G1 X119.065 Y103.196 E.03784
G1 X120.207 Y103.586 E.03784
G1 X121.307 Y104.082 E.03783
G1 X122.016 Y104.471 E.02533
G1 X122.696 Y104.902 E.02524
G1 X123.658 Y105.624 E.03774
G1 X124.552 Y106.436 E.03784
G1 X125.364 Y107.328 E.03784
G1 X126.09 Y108.292 E.03784
G1 X126.73 Y109.337 E.03839
G1 X127.258 Y110.417 E.03769
G1 X127.551 Y111.155 E.02492
G1 X127.8 Y111.921 E.02524
G1 X128.081 Y113.091 E.03774
G1 X128.252 Y114.286 E.03784
G1 X128.31 Y115.491 E.03784
G1 X128.254 Y116.697 E.03784
G1 X128.085 Y117.892 E.03784
G1 X127.804 Y119.065 E.03784
G1 X127.414 Y120.207 E.03784
G1 X126.912 Y121.319 E.03825
G1 X126.529 Y122.016 E.02492
G1 X126.098 Y122.695 E.02524
G1 X125.376 Y123.658 E.03774
G1 X124.564 Y124.552 E.03784
G1 X123.672 Y125.364 E.03784
G1 X122.708 Y126.09 E.03783
G1 X122.026 Y126.523 E.02533
G1 X121.321 Y126.911 E.02524
G1 X120.224 Y127.407 E.03774
G1 X119.082 Y127.799 E.03784
G1 X117.909 Y128.081 E.03784
G1 X116.714 Y128.252 E.03784
G1 X115.509 Y128.31 E.03784
G1 X114.303 Y128.254 E.03784
G1 X113.108 Y128.085 E.03784
G1 X111.935 Y127.804 E.03783
G1 X111.152 Y127.549 E.02579
G1 X110.054 Y127.094 E.03729
G1 X109.334 Y126.728 E.02532
G1 X108.307 Y126.1 E.03774
G1 X107.342 Y125.376 E.03784
G1 X106.448 Y124.564 E.03784
G1 X105.676 Y123.717 E.03595
G1 X105.241 Y123.739 F9000
G1 E-3.5 F3600
;WIPE_START
G1 F7200
G1 X104.903 Y122.697 E-.60792
G1 X104.477 Y122.026 E-.37745
G1 X104.089 Y121.321 E-.38232
G1 X104.039 Y121.211 E-.05731
;WIPE_END
G1 E-.075 F3600
G1 X139.7 Y92.065 F9000
G1 E5 F2400
;TYPE:Solid infill
;WIDTH:0.421377
G1 F1200
G1 X139.104 Y91.47 E.0265
G1 X138.569 Y91.47 E.01684
G1 X139.53 Y92.431 E.04277
G1 X139.53 Y92.966 E.01684
G1 X138.034 Y91.47 E.06659
G1 X137.499 Y91.47 E.01684
G1 X139.53 Y93.501 E.09041
G1 X139.53 Y94.037 E.01684
G1 X136.963 Y91.47 E.11423
G1 X136.428 Y91.47 E.01684
G1 X139.53 Y94.572 E.13805
G1 X139.53 Y95.107 E.01684
G1 X135.893 Y91.47 E.16187
G1 X135.358 Y91.47 E.01684
G1 X139.53 Y95.642 E.18568
G1 X139.53 Y96.177 E.01684
G1 X134.823 Y91.47 E.2095
G1 X134.287 Y91.47 E.01684
G1 X139.53 Y96.713 E.23332
G1 X139.53 Y97.248 E.01684
G1 X133.752 Y91.47 E.25714
G1 X133.217 Y91.47 E.01684
G1 X139.53 Y97.783 E.28096
G1 X139.53 Y98.318 E.01684
G1 X132.682 Y91.47 E.30478
G1 X132.146 Y91.47 E.01684
G1 X139.53 Y98.854 E.3286
G1 X139.53 Y99.389 E.01684
G1 X131.611 Y91.47 E.35242
G1 X131.076 Y91.47 E.01684
G1 X139.53 Y99.924 E.37624
G1 X139.53 Y100.459 E.01684
G1 X130.541 Y91.47 E.40006
G1 X130.006 Y91.47 E.01684
G1 X139.53 Y100.994 E.42388
G1 X139.53 Y101.53 E.01684
G1 X129.47 Y91.47 E.4477
G1 X128.935 Y91.47 E.01684
G1 X139.53 Y102.065 E.47152
G1 X139.53 Y102.6 E.01684
G1 X128.4 Y91.47 E.49533
G1 X127.865 Y91.47 E.01684
G1 X139.53 Y103.135 E.51915
G1 X139.53 Y103.671 E.01684
G1 X127.329 Y91.47 E.54297
G1 X126.794 Y91.47 E.01684
G1 X139.53 Y104.206 E.56679
G1 X139.53 Y104.741 E.01684
G1 X126.259 Y91.47 E.59061
G1 X125.724 Y91.47 E.01684
G1 X139.53 Y105.276 E.61443
G1 X139.53 Y105.811 E.01684
G1 X125.189 Y91.47 E.63825
G1 X124.653 Y91.47 E.01684
G1 X139.53 Y106.347 E.66207
G1 X139.53 Y106.882 E.01684
G1 X124.118 Y91.47 E.68589
G1 X123.583 Y91.47 E.01684
G1 X139.53 Y107.417 E.70971
G1 X139.53 Y107.952 E.01684
G1 X123.048 Y91.47 E.73353
G1 X122.513 Y91.47 E.01684
G1 X139.53 Y108.487 E.75735
G1 X139.53 Y109.023 E.01684
G1 X121.977 Y91.47 E.78116
G1 X121.442 Y91.47 E.01684
G1 X139.53 Y109.558 E.80498
G1 X139.53 Y110.093 E.01684
G1 X120.907 Y91.47 E.8288
G1 X120.372 Y91.47 E.01684
G1 X139.53 Y110.628 E.85262
G1 X139.53 Y111.164 E.01684
G1 X119.836 Y91.47 E.87644
G1 X119.301 Y91.47 E.01684
G1 X139.53 Y111.699 E.90026
G1 X139.53 Y112.234 E.01684
G1 X118.766 Y91.47 E.92408
G1 X118.231 Y91.47 E.01684
G1 X139.53 Y112.769 E.9479
G1 X139.53 Y113.304 E.01684
G1 X117.696 Y91.47 E.97172
G1 X117.16 Y91.47 E.01684
G1 X139.53 Y113.84 E.99554
G1 X139.53 Y114.375 E.01684
G1 X116.625 Y91.47 E1.01936
G1 X116.09 Y91.47 E.01684
G1 X139.53 Y114.91 E1.04318
G1 X139.53 Y115.445 E.01684
G1 X115.555 Y91.47 E1.067
G1 X115.019 Y91.47 E.01684
G1 X139.53 Y115.981 E1.09081
G1 X139.53 Y116.516 E.01684
G1 X114.484 Y91.47 E1.11463
G1 X113.949 Y91.47 E.01684
G1 X139.53 Y117.051 E1.13845
G1 X139.53 Y117.586 E.01684
G1 X113.414 Y91.47 E1.16227
G1 X112.879 Y91.47 E.01684
G1 X139.53 Y118.121 E1.18609
G1 X139.53 Y118.657 E.01684
G1 X112.343 Y91.47 E1.20991
G1 X111.808 Y91.47 E.01684
G1 X139.53 Y119.192 E1.23373
G1 X139.53 Y119.727 E.01684
G1 X111.273 Y91.47 E1.25755
G1 X110.738 Y91.47 E.01684
G1 X139.53 Y120.262 E1.28137
G1 X139.53 Y120.798 E.01684
G1 X126.568 Y107.836 E.57685
G1 X125.901 Y106.942 E.0351
G1 X125.025 Y105.975 E.04106
G1 X124.058 Y105.099 E.04106
G1 X123.16 Y104.427 E.03529
G1 X110.202 Y91.47 E.57665
G1 X109.667 Y91.47 E.01684
G1 X121.793 Y103.595 E.53963
G1 X120.785 Y103.123 E.03501
G1 X109.132 Y91.47 E.51861
G1 X108.597 Y91.47 E.01684
G1 X119.919 Y102.792 E.50388
G1 X119.292 Y102.576 E.02087
G1 X119.127 Y102.536 E.00534
G1 X108.062 Y91.47 E.49246
G1 X107.526 Y91.47 E.01684
G1 X118.42 Y102.364 E.48482
G1 X118.059 Y102.276 E.0117
G1 X117.753 Y102.232 E.00973
