; generated by PrusaSlicer 2.5.0+linux-x64-GTK3 on 2022-10-26 at 14:09:17 UTC

; 

; external perimeters extrusion width = 0.45mm
; perimeters extrusion width = 0.45mm
; infill extrusion width = 0.45mm
; solid infill extrusion width = 0.45mm
; top infill extrusion width = 0.40mm
; support material extrusion width = 0.38mm
; first layer extrusion width = 0.42mm

M107
;TYPE:Custom
G90 ; use absolute coordinates
M83 ; extruder relative mode
M140 S60 ; set final bed temp
M104 S150 ; set temporary nozzle temp to prevent oozing during homing
G4 S10 ; allow partial nozzle warmup
G28 ; home all axis
G1 Z50 F240
G1 X2 Y10 F3000
M104 S215 ; set final nozzle temp
M190 S60 ; wait for bed temp to stabilize
M109 S215 ; wait for nozzle temp to stabilize
G1 Z0.28 F240
G92 E0
G1 Y140 E10 F1500 ; prime the nozzle
G1 X2.3 F5000
G92 E0
G1 Y10 E10 F1200 ; prime the nozzle
G92 E0
G21 ; set units to millimeters
G90 ; use absolute coordinates
M83 ; use relative distances for extrusion
; Filament gcode
M107
;LAYER_CHANGE
;Z:0.2
;HEIGHT:0.2
;BEFORE_LAYER_CHANGE
G92 E0
;0.2


G1 E-5 F3600
G1 Z.2 F9000
;AFTER_LAYER_CHANGE
;0.2
G1 X75.422 Y76.35
G1 E5 F2400
M204 S500
;TYPE:Skirt/Brim
;WIDTH:0.42
G1 F1200
G1 X76.795 Y75.059 E.05911
G1 X77.521 Y74.555 E.0277
G1 X78.46 Y74.038 E.0336
G1 X80.219 Y73.405 E.05864
G1 X81.086 Y73.23 E.0277
G1 X82.152 Y73.13 E.0336
G1 X148.553 Y73.123 E2.08194
G1 X150.309 Y73.299 E.05534
G1 X152.001 Y73.801 E.05534
G1 X153.569 Y74.611 E.05534
G1 X154.88 Y75.628 E.05203
G1 X156.055 Y76.946 E.05533
G1 X156.962 Y78.46 E.05534
G1 X157.568 Y80.112 E.05518
G1 X157.84 Y81.67 E.04961
G1 X157.871 Y148.833 E2.10583
G1 X157.701 Y150.309 E.04659
G1 X157.24 Y151.898 E.05187
G1 X156.551 Y153.306 E.04915
G1 X155.578 Y154.65 E.05201
G1 X154.205 Y155.941 E.05911
G1 X153.319 Y156.544 E.0336
G1 X152.444 Y157.007 E.03102
G1 X151.448 Y157.401 E.0336
G1 X150.494 Y157.662 E.03102
G1 X149.623 Y157.809 E.0277
G1 X148.553 Y157.877 E.0336
G1 X82.152 Y157.87 E2.08194
G1 X80.506 Y157.662 E.05203
G1 X78.999 Y157.199 E.04945
G1 X77.521 Y156.445 E.05202
G1 X76.339 Y155.569 E.04613
G1 X75.639 Y154.891 E.03054
G1 X74.945 Y154.054 E.03408
G1 X73.993 Y152.444 E.05865
G1 X73.599 Y151.448 E.0336
G1 X73.338 Y150.494 E.03102
G1 X73.191 Y149.623 E.0277
G1 X73.123 Y148.553 E.0336
G1 X73.129 Y82.167 E2.08148
G1 X73.299 Y80.691 E.04659
G1 X73.76 Y79.102 E.05187
G1 X74.449 Y77.694 E.04915
G1 X75.387 Y76.399 E.05013
G1 E-3.5 F3600
;WIPE_START
G1 F7200
G1 X76.795 Y75.059 E-.92344
G1 X77.521 Y74.555 E-.41965
G1 X77.672 Y74.472 E-.08191
;WIPE_END
G1 E-.075 F3600
G1 X125.47 Y90.02 F9000
G1 E5 F2400
;TYPE:Support material
G1 F1200
G1 X105.53 Y90.02 E.62519
G1 X105.53 Y77.485 E.39301
G1 X125.47 Y77.485 E.62519
G1 X125.47 Y89.963 E.39124
G1 X124.717 Y89.85 F9000
G1 F1200
G1 X124.717 Y77.825 E.37705
G1 X124.299 Y77.825 E.01314
G1 X124.299 Y89.681 E.37173
G1 X123.88 Y89.681 E.01314
G1 X123.88 Y77.825 E.37173
G1 X123.461 Y77.825 E.01314
G1 X123.461 Y89.681 E.37173
G1 X123.042 Y89.681 E.01314
G1 X123.042 Y77.825 E.37173
G1 X122.623 Y77.825 E.01314
G1 X122.623 Y89.681 E.37173
G1 X122.204 Y89.681 E.01314
G1 X122.204 Y77.825 E.37173
G1 X121.785 Y77.825 E.01314
G1 X121.785 Y89.681 E.37173
G1 X121.366 Y89.681 E.01314
G1 X121.366 Y77.825 E.37173
G1 X120.947 Y77.825 E.01314
G1 X120.947 Y89.681 E.37173
G1 X120.528 Y89.681 E.01314
G1 X120.528 Y77.825 E.37173
G1 X120.109 Y77.825 E.01314
G1 X120.109 Y89.681 E.37173
G1 X119.69 Y89.681 E.01314
G1 X119.69 Y77.825 E.37173
G1 X119.271 Y77.825 E.01314
G1 X119.271 Y89.681 E.37173
G1 X118.852 Y89.681 E.01314
G1 X118.852 Y77.825 E.37173
G1 X118.433 Y77.825 E.01314
G1 X118.433 Y89.681 E.37173
G1 X118.014 Y89.681 E.01314
G1 X118.014 Y77.825 E.37173
G1 X117.595 Y77.825 E.01314
G1 X117.595 Y89.681 E.37173
G1 X117.176 Y89.681 E.01314
G1 X117.176 Y77.825 E.37173
G1 X116.757 Y77.825 E.01314
G1 X116.757 Y89.681 E.37173
G1 X116.338 Y89.681 E.01314
G1 X116.338 Y77.825 E.37173
G1 X115.919 Y77.825 E.01314
G1 X115.919 Y89.681 E.37173
G1 X115.5 Y89.681 E.01314
G1 X115.5 Y77.825 E.37173
G1 X115.081 Y77.825 E.01314
G1 X115.081 Y89.681 E.37173
G1 X114.662 Y89.681 E.01314
G1 X114.662 Y77.825 E.37173
G1 X114.243 Y77.825 E.01314
G1 X114.243 Y89.681 E.37173
G1 X113.824 Y89.681 E.01314
G1 X113.824 Y77.825 E.37173
G1 X113.405 Y77.825 E.01314
G1 X113.405 Y89.681 E.37173
G1 X112.986 Y89.681 E.01314
G1 X112.986 Y77.825 E.37173
G1 X112.567 Y77.825 E.01314
G1 X112.567 Y89.681 E.37173
G1 X112.148 Y89.681 E.01314
G1 X112.148 Y77.825 E.37173
G1 X111.729 Y77.825 E.01314
G1 X111.729 Y89.681 E.37173
G1 X111.31 Y89.681 E.01314
G1 X111.31 Y77.825 E.37173
G1 X110.891 Y77.825 E.01314
G1 X110.891 Y89.681 E.37173
G1 X110.472 Y89.681 E.01314
G1 X110.472 Y77.825 E.37173
G1 X110.053 Y77.825 E.01314
G1 X110.053 Y89.681 E.37173
G1 X109.634 Y89.681 E.01314
G1 X109.634 Y77.825 E.37173
G1 X109.215 Y77.825 E.01314
G1 X109.215 Y89.681 E.37173
G1 X108.796 Y89.681 E.01314
G1 X108.796 Y77.825 E.37173
G1 X108.377 Y77.825 E.01314
G1 X108.377 Y89.681 E.37173
G1 X107.958 Y89.681 E.01314
G1 X107.958 Y77.825 E.37173
G1 X107.539 Y77.825 E.01314
G1 X107.539 Y89.681 E.37173
G1 X107.12 Y89.681 E.01314
G1 X107.12 Y77.825 E.37173
G1 X106.701 Y77.825 E.01314
G1 X106.701 Y89.681 E.37173
G1 X106.283 Y89.681 E.01314
G1 X106.283 Y77.655 E.37705
G1 E-3.5 F3600
;WIPE_START
G1 F7200
G1 X106.283 Y80.655 E-1.425
;WIPE_END
G1 E-.075 F3600
G1 X125.47 Y153.515 F9000
G1 E5 F2400
G1 F1200
G1 X105.53 Y153.515 E.62519
G1 X105.53 Y140.98 E.39302
G1 X125.47 Y140.98 E.62519
G1 X125.47 Y153.458 E.39124
G1 X124.717 Y153.345 F9000
G1 F1200
G1 X124.717 Y141.319 E.37705
G1 X124.299 Y141.319 E.01314
G1 X124.299 Y153.175 E.37173
G1 X123.88 Y153.175 E.01314
G1 X123.88 Y141.319 E.37173
G1 X123.461 Y141.319 E.01314
G1 X123.461 Y153.175 E.37173
G1 X123.042 Y153.175 E.01314
G1 X123.042 Y141.319 E.37173
G1 X122.623 Y141.319 E.01314
G1 X122.623 Y153.175 E.37173
G1 X122.204 Y153.175 E.01314
G1 X122.204 Y141.319 E.37173
G1 X121.785 Y141.319 E.01314
G1 X121.785 Y153.175 E.37173
G1 X121.366 Y153.175 E.01314
G1 X121.366 Y141.319 E.37173
G1 X120.947 Y141.319 E.01314
G1 X120.947 Y153.175 E.37173
G1 X120.528 Y153.175 E.01314
G1 X120.528 Y141.319 E.37173
G1 X120.109 Y141.319 E.01314
G1 X120.109 Y153.175 E.37173
G1 X119.69 Y153.175 E.01314
G1 X119.69 Y141.319 E.37173
G1 X119.271 Y141.319 E.01314
G1 X119.271 Y153.175 E.37173
G1 X118.852 Y153.175 E.01314
G1 X118.852 Y141.319 E.37173
G1 X118.433 Y141.319 E.01314
G1 X118.433 Y153.175 E.37173
G1 X118.014 Y153.175 E.01314
G1 X118.014 Y141.319 E.37173
G1 X117.595 Y141.319 E.01314
G1 X117.595 Y153.175 E.37173
G1 X117.176 Y153.175 E.01314
G1 X117.176 Y141.319 E.37173
G1 X116.757 Y141.319 E.01314
G1 X116.757 Y153.175 E.37173
G1 X116.338 Y153.175 E.01314
G1 X116.338 Y141.319 E.37173
G1 X115.919 Y141.319 E.01314
G1 X115.919 Y153.175 E.37173
G1 X115.5 Y153.175 E.01314
G1 X115.5 Y141.319 E.37173
G1 X115.081 Y141.319 E.01314
G1 X115.081 Y153.175 E.37173
G1 X114.662 Y153.175 E.01314
G1 X114.662 Y141.319 E.37173
G1 X114.243 Y141.319 E.01314
G1 X114.243 Y153.175 E.37173
G1 X113.824 Y153.175 E.01314
G1 X113.824 Y141.319 E.37173
G1 X113.405 Y141.319 E.01314
G1 X113.405 Y153.175 E.37173
G1 X112.986 Y153.175 E.01314
G1 X112.986 Y141.319 E.37173
G1 X112.567 Y141.319 E.01314
G1 X112.567 Y153.175 E.37173
G1 X112.148 Y153.175 E.01314
G1 X112.148 Y141.319 E.37173
G1 X111.729 Y141.319 E.01314
G1 X111.729 Y153.175 E.37173
G1 X111.31 Y153.175 E.01314
G1 X111.31 Y141.319 E.37173
G1 X110.891 Y141.319 E.01314
G1 X110.891 Y153.175 E.37173
G1 X110.472 Y153.175 E.01314
G1 X110.472 Y141.319 E.37173
G1 X110.053 Y141.319 E.01314
G1 X110.053 Y153.175 E.37173
G1 X109.634 Y153.175 E.01314
G1 X109.634 Y141.319 E.37173
G1 X109.215 Y141.319 E.01314
G1 X109.215 Y153.175 E.37173
G1 X108.796 Y153.175 E.01314
G1 X108.796 Y141.319 E.37173
G1 X108.377 Y141.319 E.01314
G1 X108.377 Y153.175 E.37173
G1 X107.958 Y153.175 E.01314
G1 X107.958 Y141.319 E.37173
G1 X107.539 Y141.319 E.01314
G1 X107.539 Y153.175 E.37173
G1 X107.12 Y153.175 E.01314
G1 X107.12 Y141.319 E.37173
G1 X106.701 Y141.319 E.01314
G1 X106.701 Y153.175 E.37173
G1 X106.283 Y153.175 E.01314
G1 X106.283 Y141.15 E.37705
G1 E-3.5 F3600
;WIPE_START
G1 F7200
G1 X106.283 Y144.15 E-1.425
;WIPE_END
G1 E-.075 F3600
G1 X102.173 Y139.913 F9000
G1 E5 F2400
;TYPE:Perimeter
;WIDTH:0.419999
G1 F1200
G1 X102.097 Y139.952 E.00267
G1 X101.417 Y140.542 E.02822
G1 X86.057 Y152.465 E.60968
G1 X85.387 Y152.956 E.02604
G1 X84.916 Y153.231 E.01711
G1 X84.342 Y153.479 E.01961
G1 X83.825 Y153.644 E.017
G1 X83.219 Y153.76 E.01935
G1 X82.676 Y153.809 E.01711
G1 X81.834 Y153.769 E.02641
G1 X81.018 Y153.6 E.02613
G1 X80.238 Y153.306 E.02613
G1 X79.565 Y152.921 E.02431
G1 X79.121 Y152.598 E.01722
G1 X78.516 Y152.012 E.02641
G1 X78.013 Y151.342 E.02627
G1 X77.72 Y150.809 E.01907
G1 X77.505 Y150.308 E.01711
G1 X77.283 Y149.495 E.02641
G1 X77.191 Y148.667 E.02613
G1 X77.231 Y147.834 E.02613
G1 X77.388 Y147.075 E.02431
G1 X77.561 Y146.544 E.01749
G1 X77.767 Y146.088 E.01569
G1 X78.015 Y145.654 E.01569
G1 X78.311 Y145.232 E.01615
G1 X90.463 Y129.577 E.62137
G1 X91.131 Y128.778 E.03267
G1 X91.187 Y128.532 E.0079
G1 X91.187 Y102.468 E.81724
G1 X91.173 Y102.342 E.00397
G1 X91.048 Y102.097 E.00861
G1 X90.458 Y101.417 E.02822
G1 X78.535 Y86.057 E.60968
G1 X78.044 Y85.387 E.02604
G1 X77.769 Y84.916 E.01711
G1 X77.504 Y84.303 E.02093
G1 X77.283 Y83.495 E.02627
G1 X77.191 Y82.667 E.02613
G1 X77.231 Y81.834 E.02613
G1 X77.388 Y81.075 E.02431
G1 X77.559 Y80.548 E.01736
G1 X77.822 Y79.991 E.01934
G1 X78.08 Y79.556 E.01584
G1 X78.397 Y79.127 E.01674
G1 X78.988 Y78.516 E.02665
G1 X79.658 Y78.013 E.02626
G1 X80.191 Y77.72 E.01907
G1 X80.692 Y77.505 E.01711
G1 X81.505 Y77.283 E.02641
G1 X82.333 Y77.191 E.02613
G1 X83.108 Y77.228 E.0243
G1 X83.65 Y77.314 E.01723
G1 X84.4 Y77.545 E.02459
G1 X84.912 Y77.767 E.01749
G1 X85.346 Y78.015 E.01569
G1 X85.768 Y78.311 E.01615
G1 X101.423 Y90.463 E.62137
G1 X102.222 Y91.131 E.03267
G1 X102.468 Y91.187 E.0079
G1 X128.532 Y91.187 E.81724
G1 X128.658 Y91.173 E.00397
G1 X128.903 Y91.048 E.00861
G1 X129.583 Y90.458 E.02821
G1 X145.511 Y78.109 E.63194
G1 X146.239 Y77.694 E.02627
G1 X146.964 Y77.42 E.0243
G1 X147.492 Y77.285 E.01708
G1 X148.516 Y77.189 E.03227
G1 X149.112 Y77.227 E.01871
G1 X149.654 Y77.315 E.01723
G1 X150.248 Y77.487 E.01937
G1 X150.758 Y77.692 E.01723
G1 X151.299 Y77.989 E.01937
G1 X151.752 Y78.3 E.01722
G1 X152.216 Y78.708 E.01937
G1 X152.559 Y79.077 E.01579
G1 X152.864 Y79.474 E.01569
G1 X153.153 Y79.937 E.01712
G1 X153.413 Y80.489 E.01914
G1 X153.585 Y80.97 E.01602
G1 X153.717 Y81.5 E.01712
G1 X153.794 Y82.113 E.01936
G1 X153.81 Y82.662 E.01723
G1 X153.746 Y83.331 E.02107
G1 X153.614 Y83.922 E.01899
G1 X153.441 Y84.451 E.01746
G1 X153.155 Y85.059 E.02105
G1 X152.792 Y85.63 E.0212
G1 X140.537 Y101.423 E.62677
G1 X139.869 Y102.222 E.03266
G1 X139.813 Y102.468 E.0079
G1 X139.813 Y128.532 E.81724
G1 X139.827 Y128.658 E.00397
G1 X139.952 Y128.903 E.00861
G1 X140.542 Y129.583 E.02822
G1 X152.465 Y144.943 E.60968
G1 X152.956 Y145.613 E.02604
G1 X153.231 Y146.084 E.01711
G1 X153.496 Y146.697 E.02093
G1 X153.717 Y147.505 E.02627
G1 X153.809 Y148.333 E.02613
G1 X153.769 Y149.166 E.02613
G1 X153.612 Y149.925 E.02431
G1 X153.441 Y150.452 E.01736
G1 X153.178 Y151.009 E.01934
G1 X152.92 Y151.444 E.01584
G1 X152.603 Y151.873 E.01674
G1 X152.012 Y152.484 E.02665
G1 X151.342 Y152.987 E.02626
G1 X150.809 Y153.28 E.01907
G1 X150.308 Y153.495 E.01711
G1 X149.495 Y153.717 E.02641
G1 X148.667 Y153.809 E.02613
G1 X147.892 Y153.772 E.0243
G1 X147.35 Y153.686 E.01723
G1 X146.6 Y153.455 E.02459
G1 X146.088 Y153.233 E.0175
G1 X145.654 Y152.985 E.01569
G1 X145.232 Y152.689 E.01615
G1 X129.577 Y140.538 E.62137
G1 X128.778 Y139.869 E.03267
G1 X128.532 Y139.813 E.0079
G1 X102.468 Y139.813 E.81724
G1 X102.342 Y139.827 E.00397
G1 X102.226 Y139.886 E.00407
G1 X102.344 Y140.236 F9000
;TYPE:External perimeter
G1 F1200
G1 X101.657 Y140.833 E.02854
G1 X85.992 Y152.993 E.62176
G1 X85.549 Y153.304 E.01699
G1 X85.085 Y153.569 E.01675
G1 X84.418 Y153.856 E.02275
G1 X83.916 Y154.011 E.01647
G1 X83.212 Y154.145 E.02249
G1 X82.682 Y154.187 E.01668
G1 X81.787 Y154.145 E.02809
G1 X80.913 Y153.963 E.02799
G1 X80.077 Y153.648 E.02799
G1 X79.299 Y153.204 E.02808
G1 X78.875 Y152.886 E.01663
G1 X78.232 Y152.262 E.02809
G1 X77.695 Y151.547 E.02804
G1 X77.351 Y150.921 E.02239
G1 X77.148 Y150.43 E.01668
G1 X76.911 Y149.566 E.02808
G1 X76.813 Y148.679 E.02799
G1 X76.855 Y147.787 E.02799
G1 X77.037 Y146.91 E.02808
G1 X77.21 Y146.405 E.01671
G1 X77.43 Y145.917 E.01681
G1 X77.696 Y145.451 E.01681
G1 X78.007 Y145.008 E.01698
G1 X90.029 Y129.521 E.61471
G1 X90.351 Y129.12 E.01612
G1 X90.76 Y128.661 E.01929
G1 X90.81 Y128.532 E.00432
G1 X90.81 Y102.468 E.81724
G1 X90.766 Y102.346 E.00404
G1 X90.167 Y101.657 E.02864
G1 X78.008 Y85.992 E.62176
G1 X77.696 Y85.549 E.01699
G1 X77.431 Y85.085 E.01676
G1 X77.147 Y84.428 E.02242
G1 X76.911 Y83.566 E.02803
G1 X76.813 Y82.679 E.02799
G1 X76.855 Y81.787 E.02799
G1 X77.037 Y80.91 E.02808
G1 X77.209 Y80.407 E.01667
G1 X77.515 Y79.758 E.02249
G1 X77.794 Y79.302 E.01677
G1 X78.109 Y78.881 E.01648
G1 X78.738 Y78.232 E.02833
G1 X79.453 Y77.695 E.02804
G1 X80.079 Y77.351 E.02239
G1 X80.57 Y77.148 E.01668
G1 X81.434 Y76.911 E.02809
G1 X82.321 Y76.813 E.02799
G1 X83.216 Y76.856 E.02808
G1 X83.738 Y76.947 E.01663
G1 X84.597 Y77.211 E.02817
G1 X85.083 Y77.43 E.01672
G1 X85.549 Y77.696 E.01681
G1 X85.992 Y78.008 E.01699
G1 X101.479 Y90.029 E.61471
G1 X101.88 Y90.351 E.01612
G1 X102.339 Y90.76 E.01929
G1 X102.468 Y90.81 E.00432
G1 X128.532 Y90.81 E.81724
G1 X128.654 Y90.766 E.00404
G1 X129.343 Y90.167 E.02864
G1 X145.301 Y77.795 E.63311
G1 X146.078 Y77.352 E.02803
G1 X146.915 Y77.035 E.02808
G1 X147.43 Y76.912 E.01658
G1 X148.511 Y76.811 E.03404
G1 X149.215 Y76.855 E.02212
G1 X149.74 Y76.947 E.01671
G1 X150.429 Y77.147 E.02251
G1 X150.921 Y77.351 E.0167
G1 X151.55 Y77.697 E.02251
G1 X151.986 Y78.003 E.0167
G1 X152.524 Y78.478 E.02251
G1 X152.884 Y78.873 E.01676
G1 X153.206 Y79.302 E.01681
G1 X153.485 Y79.758 E.01676
G1 X153.788 Y80.4 E.02226
G1 X153.964 Y80.913 E.017
G1 X154.089 Y81.432 E.01675
G1 X154.179 Y82.144 E.02251
G1 X154.187 Y82.677 E.0167
G1 X154.12 Y83.39 E.02246
G1 X153.965 Y84.082 E.02221
G1 X153.791 Y84.593 E.01695
G1 X153.486 Y85.241 E.02245
G1 X153.101 Y85.847 E.02251
G1 X140.97 Y101.48 E.62042
G1 X140.649 Y101.88 E.01608
G1 X140.24 Y102.339 E.01929
G1 X140.19 Y102.468 E.00432
G1 X140.19 Y128.532 E.81724
G1 X140.236 Y128.656 E.00414
G1 X140.833 Y129.343 E.02854
G1 X152.992 Y145.008 E.62176
G1 X153.304 Y145.451 E.01699
G1 X153.569 Y145.915 E.01676
G1 X153.853 Y146.572 E.02242
G1 X154.089 Y147.434 E.02803
G1 X154.187 Y148.321 E.02799
G1 X154.145 Y149.213 E.02799
G1 X153.963 Y150.09 E.02808
G1 X153.791 Y150.593 E.01667
G1 X153.485 Y151.242 E.02249
G1 X153.206 Y151.698 E.01677
G1 X152.891 Y152.119 E.01648
G1 X152.262 Y152.768 E.02833
G1 X151.547 Y153.305 E.02804
G1 X150.921 Y153.649 E.02239
G1 X150.43 Y153.852 E.01668
G1 X149.566 Y154.089 E.02809
G1 X148.679 Y154.187 E.02799
G1 X147.784 Y154.144 E.02808
G1 X147.262 Y154.053 E.01663
G1 X146.403 Y153.789 E.02817
G1 X145.917 Y153.57 E.01672
G1 X145.451 Y153.304 E.01681
G1 X145.008 Y152.992 E.01699
G1 X129.521 Y140.971 E.61471
G1 X129.12 Y140.649 E.01612
G1 X128.661 Y140.24 E.01929
G1 X128.532 Y140.19 E.00432
G1 X102.468 Y140.19 E.81724
G1 X102.4 Y140.215 E.00226
G1 X102.007 Y140.02 F9000
G1 E-3.5 F3600
;WIPE_START
G1 F7200
G1 X101.657 Y140.833 E-.45919
G1 X100.051 Y142.08 E-.96581
;WIPE_END
G1 E-.075 F3600
G1 X85.421 Y81.241 F9000
G1 E5 F2400
;TYPE:Perimeter
G1 F1200
G1 X85.577 Y81.689 E.01487
G1 X85.682 Y82.42 E.02317
G1 X85.637 Y83.05 E.0198
G1 X85.501 Y83.559 E.0165
G1 X85.176 Y84.222 E.02317
G1 X84.79 Y84.714 E.01962
G1 X84.334 Y85.104 E.0188
G1 X83.814 Y85.401 E.01878
G1 X83.163 Y85.615 E.02148
G1 X82.554 Y85.685 E.01923
G1 X81.956 Y85.638 E.0188
G1 X81.298 Y85.449 E.02148
G1 X80.755 Y85.164 E.01923
G1 X80.286 Y84.79 E.01882
G1 X79.896 Y84.334 E.0188
G1 X79.596 Y83.808 E.01898
G1 X79.423 Y83.311 E.0165
G1 X79.318 Y82.58 E.02317
