;FLAVOR:Marlin
;TIME:5667
;Filament used: 4.01971m
;Layer height: 0.2
;MINX:67.513
;MINY:67.513
;MINZ:0.2
;MAXX:167.487
;MAXY:167.487
;MAXZ:10
;Generated with Cura_SteamEngine master
M140 S50
M105
M190 S50
M104 S200
M105
M109 S200
M82 ;absolute extrusion mode
; Ender 3 Custom Start G-code
G92 E0 ; Reset Extruder
G28 ; Home all axes
G1 Z2.0 F3000 ; Move Z Axis up little to prevent scratching of Heat Bed
G1 X0.1 Y20 Z0.3 F5000.0 ; Move to start position
G1 X0.1 Y200.0 Z0.3 F1500.0 E15 ; Draw the first line
G1 X0.4 Y200.0 Z0.3 F5000.0 ; Move to side a little
G1 X0.4 Y20 Z0.3 F1500.0 E30 ; Draw the second line
G92 E0 ; Reset Extruder
G1 Z2.0 F3000 ; Move Z Axis up little to prevent scratching of Heat Bed
G1 X5 Y20 Z0.3 F5000.0 ; Move over to prevent blob squish
G92 E0
G92 E0
G1 F2700 E-5
;LAYER_COUNT:50
;LAYER:0
M107
G0 F6000 X72.615 Y72.363 Z0.2
;TYPE:SKIRT
G1 F2700 E0
G1 F1200 X73.138 Y71.872 E0.02386
G1 X73.297 Y71.732 E0.03091
G1 X73.573 Y71.497 E0.04296
G1 X73.828 Y71.287 E0.05395
G1 X74.374 Y70.865 E0.0769
G1 X74.674 Y70.648 E0.08922
G1 X75.272 Y70.245 E0.1132
G1 X75.632 Y70.019 E0.12734
G1 X76.122 Y69.729 E0.14628
G1 X76.459 Y69.541 E0.15911
G1 X77.184 Y69.171 E0.18618
G1 X77.522 Y69.014 E0.19858
G1 X78.136 Y68.751 E0.2208
G1 X78.462 Y68.623 E0.23244
G1 X79.114 Y68.39 E0.25547
G1 X79.4 Y68.298 E0.26546
G1 X79.722 Y68.2 E0.27666
G1 X79.958 Y68.132 E0.28483
G1 X80.611 Y67.965 E0.30725
G1 X80.961 Y67.887 E0.31917
G1 X81.331 Y67.812 E0.33173
G1 X81.486 Y67.783 E0.33697
G1 X82.133 Y67.681 E0.35876
G1 X82.601 Y67.622 E0.37445
G1 X82.987 Y67.581 E0.38736
G1 X83.142 Y67.567 E0.39254
G1 X83.764 Y67.528 E0.41326
G1 X84.033 Y67.519 E0.42222
G1 X84.476 Y67.513 E0.43695
G1 X84.844 Y67.519 E0.44919
G1 X85.352 Y67.536 E0.4661
G1 X86.374 Y67.618 E0.5002
G1 X86.837 Y67.677 E0.51572
G1 X87.277 Y67.742 E0.53052
G1 X87.638 Y67.805 E0.5427
G1 X87.872 Y67.85 E0.55063
G1 X88.528 Y67.997 E0.57299
G1 X88.797 Y68.066 E0.58223
G1 X89.181 Y68.172 E0.59548
G1 X89.674 Y68.319 E0.61259
G1 X92.221 Y69.113 E0.70132
G1 X94.637 Y69.792 E0.78479
G1 X97.103 Y70.409 E0.86934
G1 X99.567 Y70.953 E0.95327
G1 X102.009 Y71.421 E1.03596
G1 X104.526 Y71.828 E1.12077
G1 X107.005 Y72.159 E1.20395
G1 X109.503 Y72.42 E1.28749
G1 X112.016 Y72.61 E1.37131
G1 X114.511 Y72.73 E1.45439
G1 X117.031 Y72.779 E1.53822
G1 X119.592 Y72.755 E1.6234
G1 X122.078 Y72.663 E1.70614
G1 X124.563 Y72.5 E1.78897
G1 X127.1 Y72.261 E1.87373
G1 X129.615 Y71.952 E1.95801
G1 X132.059 Y71.583 E2.04022
G1 X134.581 Y71.127 E2.12546
G1 X137.022 Y70.614 E2.20842
G1 X139.427 Y70.039 E2.29066
G1 X141.886 Y69.375 E2.37538
G1 X145.068 Y68.406 E2.48601
G1 X145.378 Y68.305 E2.49686
G1 X145.779 Y68.183 E2.5108
G1 X146.001 Y68.12 E2.51847
G1 X146.611 Y67.965 E2.53941
G1 X146.961 Y67.887 E2.55133
G1 X147.331 Y67.812 E2.56389
G1 X147.486 Y67.783 E2.56913
G1 X148.133 Y67.681 E2.59092
G1 X148.601 Y67.622 E2.60661
G1 X148.987 Y67.581 E2.61952
G1 X149.142 Y67.567 E2.62469
G1 X149.764 Y67.528 E2.64542
G1 X150.033 Y67.519 E2.65438
G1 X150.476 Y67.513 E2.66911
G1 X150.844 Y67.519 E2.68135
G1 X151.352 Y67.536 E2.69826
G1 X152.374 Y67.618 E2.73236
G1 X152.837 Y67.677 E2.74788
G1 X153.277 Y67.742 E2.76268
G1 X153.638 Y67.805 E2.77486
G1 X153.872 Y67.85 E2.78279
G1 X154.528 Y67.997 E2.80515
G1 X154.797 Y68.066 E2.81439
G1 X155.144 Y68.161 E2.82635
G1 X155.456 Y68.252 E2.83716
G1 X155.906 Y68.393 E2.85285
G1 X156.49 Y68.607 E2.87353
G1 X157.046 Y68.828 E2.89343
G1 X157.681 Y69.104 E2.91646
G1 X157.88 Y69.198 E2.92378
G1 X158.309 Y69.412 E2.93973
G1 X158.552 Y69.54 E2.94886
G1 X159.305 Y69.975 E2.97779
G1 X159.743 Y70.252 E2.99502
G1 X160.345 Y70.662 E3.01925
G1 X160.722 Y70.937 E3.03477
G1 X161.241 Y71.34 E3.05662
G1 X161.384 Y71.458 E3.06279
G1 X161.666 Y71.698 E3.07511
G1 X161.872 Y71.88 E3.08425
G1 X162.367 Y72.346 E3.10686
G1 X162.658 Y72.637 E3.12055
G1 X163.136 Y73.146 E3.14377
G1 X163.32 Y73.355 E3.15303
G1 X163.536 Y73.608 E3.1641
G1 X163.695 Y73.8 E3.17239
G1 X164.133 Y74.366 E3.19619
G1 X164.348 Y74.663 E3.20839
G1 X164.741 Y75.242 E3.23166
G1 X164.936 Y75.551 E3.24382
G1 X165.267 Y76.113 E3.26551
G1 X165.515 Y76.563 E3.2826
G1 X165.913 Y77.361 E3.31226
G1 X166.038 Y77.639 E3.3224
G1 X166.237 Y78.11 E3.3394
G1 X166.391 Y78.5 E3.35335
G1 X166.726 Y79.479 E3.38776
G1 X166.892 Y80.052 E3.40761
G1 X167.126 Y81.026 E3.44092
G1 X167.212 Y81.471 E3.456
G1 X167.326 Y82.184 E3.48001
G1 X167.381 Y82.621 E3.49466
G1 X167.445 Y83.294 E3.51715
G1 X167.46 Y83.529 E3.52498
G1 X167.477 Y83.889 E3.53697
G1 X167.482 Y84.05 E3.54232
G1 X167.487 Y84.391 E3.55367
G1 X167.487 Y84.608 E3.56088
G1 X167.482 Y84.947 E3.57216
G1 X167.477 Y85.109 E3.57755
G1 X167.459 Y85.477 E3.58981
G1 X167.444 Y85.71 E3.59757
G1 X167.38 Y86.383 E3.62006
G1 X167.325 Y86.818 E3.63464
G1 X167.216 Y87.507 E3.65784
G1 X167.13 Y87.956 E3.67305
G1 X166.89 Y88.952 E3.70712
G1 X166.65 Y89.774 E3.7356
G1 X165.886 Y92.227 E3.82106
G1 X165.206 Y94.648 E3.90469
G1 X164.602 Y97.058 E3.98733
G1 X164.047 Y99.571 E4.07293
G1 X163.583 Y101.997 E4.15508
G1 X163.174 Y104.517 E4.23999
G1 X162.844 Y106.993 E4.32307
G1 X162.582 Y109.497 E4.40681
G1 X162.392 Y112.006 E4.4905
G1 X162.272 Y114.503 E4.57364
G1 X162.223 Y117.025 E4.65754
G1 X162.247 Y119.586 E4.74273
G1 X162.339 Y122.072 E4.82547
G1 X162.502 Y124.553 E4.90816
G1 X162.741 Y127.096 E4.99312
G1 X163.049 Y129.604 E5.07716
G1 X163.42 Y132.055 E5.15961
G1 X163.875 Y134.571 E5.24465
G1 X164.381 Y136.989 E5.32681
G1 X164.973 Y139.456 E5.4112
G1 X165.626 Y141.874 E5.4945
G1 X166.702 Y145.397 E5.61702
G1 X166.892 Y146.053 E5.63973
G1 X167.126 Y147.026 E5.67302
G1 X167.212 Y147.471 E5.68809
G1 X167.326 Y148.184 E5.71211
G1 X167.381 Y148.621 E5.72676
G1 X167.445 Y149.294 E5.74924
G1 X167.46 Y149.529 E5.75708
G1 X167.477 Y149.889 E5.76906
G1 X167.482 Y150.05 E5.77442
G1 X167.487 Y150.391 E5.78576
G1 X167.487 Y150.608 E5.79298
G1 X167.482 Y150.947 E5.80426
G1 X167.477 Y151.109 E5.80965
G1 X167.459 Y151.477 E5.8219
G1 X167.444 Y151.71 E5.82967
G1 X167.38 Y152.383 E5.85215
G1 X167.325 Y152.818 E5.86674
G1 X167.216 Y153.507 E5.88994
G1 X167.13 Y153.956 E5.90514
G1 X166.891 Y154.951 E5.93918
G1 X166.726 Y155.52 E5.95888
G1 X166.403 Y156.469 E5.99222
G1 X166.249 Y156.862 E6.00626
G1 X166.032 Y157.376 E6.02482
G1 X165.906 Y157.655 E6.035
G1 X165.519 Y158.43 E6.06381
G1 X165.272 Y158.879 E6.08086
G1 X164.942 Y159.44 E6.10251
G1 X164.748 Y159.748 E6.11461
G1 X164.336 Y160.355 E6.13901
G1 X164.12 Y160.652 E6.15123
G1 X163.71 Y161.181 E6.17349
G1 X163.55 Y161.375 E6.18185
G1 X163.265 Y161.707 E6.1964
G1 X163.046 Y161.952 E6.20733
G1 X162.592 Y162.43 E6.22926
G1 X162.343 Y162.677 E6.24093
G1 X161.914 Y163.081 E6.26053
G1 X161.758 Y163.22 E6.26747
G1 X161.434 Y163.497 E6.28165
G1 X161.173 Y163.712 E6.2929
G1 X160.626 Y164.135 E6.3159
G1 X160.326 Y164.352 E6.32821
G1 X159.728 Y164.755 E6.3522
G1 X159.368 Y164.981 E6.36634
G1 X158.878 Y165.271 E6.38527
G1 X158.541 Y165.459 E6.39811
G1 X157.803 Y165.835 E6.42566
G1 X157.466 Y165.991 E6.43801
G1 X156.882 Y166.242 E6.45915
G1 X156.555 Y166.371 E6.47084
G1 X155.886 Y166.61 E6.49447
G1 X155.6 Y166.702 E6.50446
G1 X155.278 Y166.8 E6.51566
G1 X155.042 Y166.868 E6.52383
G1 X154.389 Y167.035 E6.54624
G1 X154.039 Y167.113 E6.55817
G1 X153.669 Y167.188 E6.57073
G1 X153.514 Y167.217 E6.57597
G1 X152.867 Y167.319 E6.59776
G1 X152.399 Y167.378 E6.61345
G1 X152.013 Y167.419 E6.62636
G1 X151.858 Y167.433 E6.63153
G1 X151.236 Y167.472 E6.65226
G1 X150.967 Y167.481 E6.66121
G1 X150.524 Y167.487 E6.67595
G1 X150.156 Y167.481 E6.68819
G1 X149.648 Y167.464 E6.7051
G1 X148.626 Y167.382 E6.7392
G1 X148.163 Y167.323 E6.75472
G1 X147.723 Y167.258 E6.76951
G1 X147.362 Y167.195 E6.7817
G1 X147.128 Y167.15 E6.78963
G1 X146.472 Y167.003 E6.81199
G1 X146.203 Y166.934 E6.82122
G1 X145.819 Y166.828 E6.83447
G1 X145.326 Y166.681 E6.85158
G1 X142.779 Y165.887 E6.94032
G1 X140.363 Y165.208 E7.02379
G1 X137.897 Y164.591 E7.10834
G1 X135.433 Y164.047 E7.19226
G1 X132.991 Y163.579 E7.27496
G1 X130.474 Y163.172 E7.35976
G1 X127.995 Y162.841 E7.44295
G1 X125.497 Y162.58 E7.52648
G1 X122.984 Y162.39 E7.61031
G1 X120.489 Y162.27 E7.69339
G1 X117.969 Y162.221 E7.77722
G1 X115.408 Y162.245 E7.8624
G1 X112.922 Y162.337 E7.94514
G1 X110.437 Y162.5 E8.02797
G1 X107.9 Y162.739 E8.11272
G1 X105.385 Y163.048 E8.197
G1 X102.941 Y163.417 E8.27921
G1 X100.419 Y163.873 E8.36445
G1 X97.978 Y164.386 E8.44742
G1 X95.573 Y164.961 E8.52966
G1 X93.114 Y165.625 E8.61438
G1 X89.932 Y166.594 E8.72501
G1 X89.622 Y166.695 E8.73585
G1 X89.221 Y166.817 E8.74979
G1 X88.999 Y166.88 E8.75747
G1 X88.389 Y167.035 E8.7784
G1 X88.039 Y167.113 E8.79033
G1 X87.669 Y167.188 E8.80289
G1 X87.514 Y167.217 E8.80813
G1 X86.867 Y167.319 E8.82992
G1 X86.399 Y167.378 E8.8456
G1 X86.013 Y167.419 E8.85852
G1 X85.858 Y167.433 E8.86369
G1 X85.236 Y167.472 E8.88442
G1 X84.967 Y167.481 E8.89337
G1 X84.524 Y167.487 E8.90811
G1 X84.156 Y167.481 E8.92035
G1 X83.648 Y167.464 E8.93725
G1 X82.626 Y167.382 E8.97136
G1 X82.163 Y167.323 E8.98688
G1 X81.723 Y167.258 E9.00167
G1 X81.362 Y167.195 E9.01386
G1 X81.128 Y167.15 E9.02179
G1 X80.472 Y167.003 E9.04415
G1 X80.203 Y166.934 E9.05338
G1 X79.856 Y166.839 E9.06535
G1 X79.544 Y166.748 E9.07616
G1 X79.094 Y166.607 E9.09184
G1 X78.51 Y166.393 E9.11253
G1 X77.954 Y166.172 E9.13243
G1 X77.319 Y165.896 E9.15546
G1 X77.12 Y165.802 E9.16278
G1 X76.679 Y165.582 E9.17917
G1 X76.433 Y165.452 E9.18843
G1 X75.694 Y165.024 E9.21683
G1 X75.259 Y164.749 E9.23395
G1 X74.642 Y164.329 E9.25877
G1 X74.262 Y164.051 E9.27443
G1 X73.775 Y163.673 E9.29494
G1 X73.635 Y163.558 E9.30096
G1 X73.331 Y163.299 E9.31424
G1 X73.124 Y163.116 E9.32343
G1 X72.632 Y162.653 E9.3459
G1 X72.341 Y162.362 E9.35959
G1 X71.86 Y161.85 E9.38296
G1 X71.677 Y161.642 E9.39217
G1 X71.468 Y161.396 E9.40291
G1 X71.308 Y161.203 E9.41125
G1 X70.87 Y160.639 E9.435
G1 X70.654 Y160.341 E9.44724
G1 X70.252 Y159.748 E9.47107
G1 X70.058 Y159.44 E9.48317
G1 X69.728 Y158.879 E9.50482
G1 X69.481 Y158.43 E9.52187
G1 X69.087 Y157.639 E9.55126
G1 X68.962 Y157.361 E9.5614
G1 X68.758 Y156.877 E9.57886
G1 X68.603 Y156.483 E9.59295
G1 X68.274 Y155.52 E9.62679
G1 X68.109 Y154.951 E9.6465
G1 X67.87 Y153.956 E9.68053
G1 X67.784 Y153.507 E9.69574
G1 X67.675 Y152.818 E9.71894
G1 X67.62 Y152.383 E9.73352
G1 X67.556 Y151.71 E9.75601
G1 X67.541 Y151.477 E9.76377
G1 X67.523 Y151.111 E9.77596
G1 X67.518 Y150.95 E9.78132
G1 X67.513 Y150.609 E9.79266
G1 X67.513 Y150.392 E9.79988
G1 X67.518 Y150.053 E9.81116
G1 X67.523 Y149.891 E9.81655
G1 X67.541 Y149.526 E9.8287
G1 X67.556 Y149.292 E9.8365
G1 X67.619 Y148.619 E9.85898
G1 X67.674 Y148.183 E9.8736
G1 X67.786 Y147.482 E9.89721
G1 X67.872 Y147.035 E9.91235
G1 X68.11 Y146.048 E9.94612
G1 X68.35 Y145.226 E9.9746
G1 X69.114 Y142.773 E10.06005
G1 X69.794 Y140.352 E10.14369
G1 X70.398 Y137.942 E10.22633
G1 X70.953 Y135.429 E10.31192
G1 X71.417 Y133.003 E10.39408
G1 X71.826 Y130.483 E10.47899
G1 X72.156 Y128.007 E10.56207
G1 X72.418 Y125.503 E10.64581
G1 X72.608 Y122.994 E10.7295
G1 X72.728 Y120.497 E10.81264
G1 X72.777 Y117.975 E10.89654
G1 X72.753 Y115.414 E10.98172
G1 X72.661 Y112.928 E11.06446
G1 X72.498 Y110.443 E11.14729
G1 X72.259 Y107.906 E11.23205
G1 X71.95 Y105.391 E11.31633
G1 X71.576 Y102.92 E11.39945
G1 X71.131 Y100.458 E11.48266
G1 X70.619 Y98.011 E11.56581
G1 X70.025 Y95.534 E11.65053
G1 X69.379 Y93.141 E11.73297
G1 X68.298 Y89.603 E11.85602
G1 X68.108 Y88.947 E11.87873
G1 X67.87 Y87.956 E11.91263
G1 X67.784 Y87.507 E11.92784
G1 X67.675 Y86.818 E11.95104
G1 X67.62 Y86.383 E11.96562
G1 X67.556 Y85.71 E11.98811
G1 X67.541 Y85.477 E11.99587
G1 X67.523 Y85.111 E12.00806
G1 X67.518 Y84.95 E12.01342
G1 X67.513 Y84.609 E12.02476
G1 X67.513 Y84.392 E12.03198
G1 X67.518 Y84.053 E12.04325
G1 X67.523 Y83.891 E12.04864
G1 X67.541 Y83.526 E12.0608
G1 X67.556 Y83.292 E12.0686
G1 X67.619 Y82.619 E12.09108
G1 X67.674 Y82.183 E12.1057
G1 X67.786 Y81.482 E12.12931
G1 X67.872 Y81.035 E12.14445
G1 X68.11 Y80.047 E12.17825
G1 X68.276 Y79.475 E12.19806
G1 X68.6 Y78.524 E12.23147
G1 X68.753 Y78.134 E12.24541
G1 X68.968 Y77.624 E12.26382
G1 X69.094 Y77.345 E12.274
G1 X69.481 Y76.57 E12.30281
G1 X69.728 Y76.121 E12.31985
G1 X70.063 Y75.552 E12.34181
G1 X70.258 Y75.243 E12.35397
G1 X70.661 Y74.649 E12.37784
G1 X70.876 Y74.353 E12.39001
G1 X71.29 Y73.819 E12.41248
G1 X71.45 Y73.625 E12.42085
G1 X71.688 Y73.346 E12.43304
G1 X71.868 Y73.142 E12.44209
G1 X72.324 Y72.655 E12.46428
G1 X72.615 Y72.363 E12.47799
G0 F6000 X72.899 Y72.646
G1 F1200 X73.402 Y72.172 E12.50098
G1 X73.561 Y72.032 E12.50803
G1 X73.828 Y71.806 E12.51966
G1 X74.083 Y71.596 E12.53065
G1 X74.609 Y71.189 E12.55277
G1 X74.909 Y70.972 E12.56509
G1 X75.485 Y70.583 E12.5882
G1 X75.845 Y70.357 E12.60234
G1 X76.317 Y70.078 E12.62058
G1 X76.654 Y69.89 E12.63341
G1 X77.353 Y69.533 E12.65952
G1 X77.691 Y69.376 E12.67191
G1 X78.282 Y69.123 E12.69329
G1 X78.608 Y68.995 E12.70494
G1 X79.236 Y68.771 E12.72712
G1 X79.522 Y68.679 E12.73711
G1 X79.833 Y68.584 E12.74793
G1 X80.069 Y68.516 E12.7561
G1 X80.698 Y68.356 E12.77768
G1 X81.048 Y68.278 E12.78961
G1 X81.405 Y68.205 E12.80173
G1 X81.56 Y68.176 E12.80697
G1 X82.183 Y68.078 E12.82795
G1 X82.651 Y68.019 E12.84364
G1 X83.023 Y67.979 E12.85608
G1 X83.178 Y67.965 E12.86126
G1 X83.778 Y67.928 E12.88125
G1 X84.047 Y67.919 E12.89021
G1 X84.476 Y67.913 E12.90448
G1 X84.831 Y67.919 E12.91628
G1 X85.339 Y67.936 E12.93319
G1 X86.324 Y68.015 E12.96606
G1 X86.787 Y68.074 E12.98158
G1 X87.214 Y68.137 E12.99594
G1 X87.563 Y68.198 E13.00772
G1 X87.797 Y68.243 E13.01565
G1 X88.429 Y68.384 E13.03718
G1 X88.698 Y68.453 E13.04642
G1 X89.068 Y68.556 E13.05919
G1 X89.555 Y68.701 E13.07609
G1 X92.099 Y69.494 E13.16472
G1 X94.537 Y70.179 E13.24895
G1 X96.992 Y70.794 E13.33313
G1 X99.511 Y71.35 E13.41893
G1 X101.942 Y71.815 E13.50125
G1 X104.445 Y72.22 E13.58558
G1 X106.947 Y72.554 E13.66954
G1 X109.466 Y72.817 E13.75377
G1 X112 Y73.01 E13.8383
G1 X114.52 Y73.13 E13.92221
G1 X117.027 Y73.179 E14.00561
G1 X119.575 Y73.155 E14.09036
G1 X122.119 Y73.061 E14.17503
G1 X124.625 Y72.897 E14.25856
G1 X127.115 Y72.662 E14.34174
G1 X129.657 Y72.35 E14.42693
G1 X132.152 Y71.973 E14.51085
G1 X134.636 Y71.524 E14.59481
G1 X137.118 Y71.003 E14.67916
G1 X139.551 Y70.421 E14.76237
G1 X141.988 Y69.762 E14.84633
G1 X145.135 Y68.804 E14.95574
G1 X145.501 Y68.685 E14.96854
G1 X145.888 Y68.568 E14.98199
G1 X146.11 Y68.505 E14.98967
G1 X146.698 Y68.356 E15.00984
G1 X147.048 Y68.278 E15.02177
G1 X147.405 Y68.205 E15.03389
G1 X147.56 Y68.176 E15.03913
G1 X148.183 Y68.078 E15.06011
G1 X148.651 Y68.019 E15.0758
G1 X149.023 Y67.979 E15.08824
G1 X149.178 Y67.965 E15.09342
G1 X149.778 Y67.928 E15.11341
G1 X150.047 Y67.919 E15.12236
G1 X150.476 Y67.913 E15.13663
G1 X150.831 Y67.919 E15.14844
G1 X151.339 Y67.936 E15.16535
G1 X152.324 Y68.015 E15.19821
G1 X152.787 Y68.074 E15.21374
G1 X153.214 Y68.137 E15.22809
G1 X153.563 Y68.198 E15.23988
G1 X153.797 Y68.243 E15.2478
G1 X154.429 Y68.384 E15.26934
G1 X154.698 Y68.453 E15.27858
G1 X155.032 Y68.545 E15.2901
G1 X155.344 Y68.636 E15.30091
G1 X155.779 Y68.773 E15.31608
G1 X156.342 Y68.979 E15.33602
G1 X156.898 Y69.2 E15.35592
G1 X157.51 Y69.465 E15.3781
G1 X157.709 Y69.559 E15.38542
G1 X158.122 Y69.766 E15.40078
G1 X158.365 Y69.894 E15.40992
G1 X159.091 Y70.313 E15.4378
G1 X159.529 Y70.59 E15.45504
G1 X160.11 Y70.985 E15.4784
G1 X160.487 Y71.26 E15.49392
G1 X160.987 Y71.648 E15.51497
G1 X161.13 Y71.766 E15.52114
G1 X161.401 Y71.998 E15.53301
G1 X161.607 Y72.18 E15.54215
G1 X162.084 Y72.629 E15.56394
G1 X162.375 Y72.92 E15.57762
G1 X162.836 Y73.411 E15.60002
G1 X163.02 Y73.62 E15.60929
G1 X163.228 Y73.863 E15.61992
G1 X163.387 Y74.055 E15.62822
G1 X163.809 Y74.6 E15.65114
G1 X164.024 Y74.897 E15.66334
G1 X164.402 Y75.456 E15.68578
G1 X164.597 Y75.765 E15.69793
G1 X164.917 Y76.306 E15.71884
G1 X165.165 Y76.756 E15.73593
G1 X165.549 Y77.525 E15.76452
G1 X165.674 Y77.803 E15.77466
G1 X165.865 Y78.257 E15.79104
G1 X166.019 Y78.647 E15.80498
G1 X166.341 Y79.59 E15.83813
G1 X166.507 Y80.163 E15.85797
G1 X166.733 Y81.102 E15.89009
G1 X166.819 Y81.547 E15.90517
